X:10
T:Chark's. ThoH.010
Q:1/2=90
M:3/2
L:1/8
B:Thompson's Compleat Collection of 120 Favourite Hornpipes.
Z:Village Music Project, Simon Wilson 2016
O:England.
K:A
A4A,2c2BGFE|F2f2dcBA GBED|CEAc DGBd EAce|fcBAB,2G2A4:|
|:A4cecA aedc|fgaf ecBA GBGE|cAec aAfA ^dABA|Ge^dc BAGFE4|
CEAc AAcA ecBA|FAdf dcBA GBGE|C(A/B/c)A D(B/c/d)B E(c/d/e)c|BGAF EDCB,A,4|]

